X: 1
T:Th' Borth E th' Lad
M:2/4
L:1/8
C:Tommy Armstrong
K:D
|D|FA AF| E(DD)E/2E/2| FA BB|A3A|
B>c dc|BA FB|BA dF| E3 E| FA AF|
E(DD)E| FA BB|A3 A| B>c dc|BA FD|
FE DC|D4||m: 6/8 F2 F F2E| F (A2A2) A|
B2 B B2A| B (d2d3)|m: 2/4 d4|c2 d2| B A3|
F2 A2| B2A2|d2 F2|(E4|E2) A2|F2 A2| A2 F2|
E2(D2|D2) D2|D2 F2| A2 d2| B2 (A2|A4)|B3 c|
d2c2| B A3|F2 A2|B4|c3 c|d4||
